icon/svg/bc22/minimal.svg

<?xml version="1.0" encoding="UTF-8"?>
<svg id="Layer_1" data-name="Layer 1" xmlns="http://www.w3.org/2000/svg" viewBox="0 0 180 180">
  <path d="M104.24,50.33L69.91,16.01c-5.4-5.4-14.18-5.41-19.58-.01L16,50.33c-5.4,5.4-5.4,14.19,0,19.59l34.33,34.32c5.4,5.4,14.18,5.41,19.58,0l5.26-5.26-5.8-5.81c-1.62-1.61-1.62-4.23,0-5.84,1.61-1.61,4.23-1.61,5.84,0l5.81,5.81,12.13-12.13-5.81-5.81c-1.62-1.61-1.62-4.23,0-5.84,1.61-1.62,4.23-1.62,5.84,0l5.81,5.81,5.26-5.26c5.4-5.4,5.39-14.19-.01-19.59Zm-30.67,22.24c-.21,.6-.55,1.02-1.02,1.24-.7,.38-1.68,.57-2.95,.57h-18.57c-1.14,0-2.13-.43-2.95-1.28-.82-.86-1.23-1.86-1.23-3,0-1.71,.59-3.28,1.78-4.72,1.18-1.45,2.62-2.68,4.3-3.71,1.67-1.03,3.35-2.04,5.03-3.04,1.68-1,3.11-2.13,4.3-3.4,1.19-1.26,1.78-2.61,1.78-4.04,0-.28-.11-.68-.33-1.21-.22-.52-.47-.95-.74-1.28-.27-.33-.68-.64-1.25-.93-.58-.28-1.37-.42-2.38-.42s-1.89,.37-2.64,1.11c-.74,.75-1.16,1.48-1.26,2.21l-.19,1.09v.29c0,.7-.02,1.22-.07,1.57-.04,.35-.2,.74-.45,1.18-.47,.77-1.71,1.15-3.7,1.15-2.22,0-3.54-.61-3.95-1.81-.16-.51-.23-1.31-.23-2.42,0-3.3,1.17-6.25,3.53-8.86,2.36-2.62,5.45-3.92,9.27-3.92s6.91,1.32,9.29,3.96c2.37,2.65,3.56,5.67,3.56,9.05,0,1.81-.4,3.52-1.19,5.14-.79,1.61-1.74,2.91-2.85,3.89-2.34,2.09-4.43,3.5-6.27,4.23l-1.19,.47v.24h8.7c1.29,0,2.22,.15,2.78,.45,.55,.3,.92,.76,1.11,1.38,.19,.62,.29,1.43,.29,2.42s-.11,1.8-.31,2.4Z" style="fill: #94c0ff;"/>
  <path d="M164,110.09l-34.33-34.33c-5.4-5.4-14.18-5.4-19.58,0l-5.26,5.26,5.89,5.88c1.61,1.62,1.61,4.24,0,5.85-.81,.81-1.87,1.21-2.92,1.21s-2.12-.4-2.93-1.21l-5.88-5.89-12.13,12.13,5.89,5.89c1.61,1.61,1.61,4.23,0,5.84-.81,.81-1.87,1.21-2.92,1.21s-2.12-.4-2.93-1.21l-5.88-5.89-5.26,5.26c-5.4,5.4-5.4,14.18,0,19.58l34.33,34.33c5.4,5.4,14.18,5.4,19.58,0l34.33-34.33c5.4-5.4,5.4-14.18,0-19.58Zm-30.67,25.89c-.21,.6-.55,1.01-1.02,1.24-.7,.38-1.68,.57-2.95,.57h-18.58c-1.14,0-2.12-.43-2.94-1.29-.82-.85-1.24-1.85-1.24-2.99,0-1.71,.6-3.29,1.79-4.73,1.18-1.44,2.62-2.67,4.3-3.7,1.67-1.03,3.35-2.05,5.03-3.04,1.68-1,3.11-2.13,4.3-3.4s1.78-2.61,1.78-4.04c0-.28-.11-.69-.33-1.21s-.47-.95-.74-1.28c-.27-.33-.69-.64-1.26-.93-.57-.28-1.36-.43-2.37-.43s-1.89,.38-2.64,1.12c-.74,.74-1.16,1.48-1.26,2.21l-.19,1.09v.29c0,.69-.02,1.22-.07,1.56-.05,.35-.2,.75-.45,1.19-.47,.76-1.71,1.14-3.71,1.14-2.21,0-3.53-.6-3.94-1.8-.16-.51-.24-1.32-.24-2.43,0-3.29,1.18-6.24,3.54-8.86,2.36-2.61,5.45-3.92,9.27-3.92s6.91,1.33,9.28,3.97c2.38,2.65,3.57,5.66,3.57,9.05,0,1.81-.4,3.52-1.19,5.13-.79,1.62-1.74,2.92-2.85,3.9-2.34,2.09-4.43,3.5-6.27,4.23l-1.19,.47v.24h8.7c1.29,0,2.22,.15,2.77,.45,.56,.3,.93,.76,1.12,1.38s.29,1.42,.29,2.42-.11,1.8-.31,2.4Z" style="fill: #8ce8f4;"/>
</svg>

<?xml version="1.0" encoding="UTF-8" standalone="no"?>
<!DOCTYPE svg PUBLIC "-//W3C//DTD SVG 1.1//EN" "http://www.w3.org/Graphics/SVG/1.1/DTD/svg11.dtd">
<svg width="100%" height="100%" viewBox="0 0 180 180" version="1.1" xmlns="http://www.w3.org/2000/svg" xmlns:xlink="http://www.w3.org/1999/xlink" xml:space="preserve" xmlns:serif="http://www.serif.com/" style="fill-rule:evenodd;clip-rule:evenodd;stroke-linejoin:round;stroke-miterlimit:2;">
    <g transform="matrix(1,0,0,1,-440,-2820)">
        <g transform="matrix(1,0,0,1,0,2600)">
            <g id="bc22-minimal" serif:id="bc22/minimal" transform="matrix(1.07693,0,0,1.07693,192.305,-15.337)">
                <rect x="230" y="218.525" width="167.141" height="167.141" style="fill:none;"/>
                <g transform="matrix(0.928563,0,0,0.928563,230,218.525)">
                    <path d="M104.24,50.33L69.91,16.01C64.51,10.61 55.73,10.6 50.33,16L16,50.33C10.6,55.73 10.6,64.52 16,69.92L50.33,104.24C55.73,109.64 64.51,109.65 69.91,104.24L75.17,98.98L69.37,93.17C67.75,91.56 67.75,88.94 69.37,87.33C70.98,85.72 73.6,85.72 75.21,87.33L81.02,93.14L93.15,81.01L87.34,75.2C85.72,73.59 85.72,70.97 87.34,69.36C88.95,67.74 91.57,67.74 93.18,69.36L98.99,75.17L104.25,69.91C109.65,64.51 109.64,55.72 104.24,50.32L104.24,50.33ZM73.57,72.57C73.36,73.17 73.02,73.59 72.55,73.81C71.85,74.19 70.87,74.38 69.6,74.38L51.03,74.38C49.89,74.38 48.9,73.95 48.08,73.1C47.26,72.24 46.85,71.24 46.85,70.1C46.85,68.39 47.44,66.82 48.63,65.38C49.81,63.93 51.25,62.7 52.93,61.67C54.6,60.64 56.28,59.63 57.96,58.63C59.64,57.63 61.07,56.5 62.26,55.23C63.45,53.97 64.04,52.62 64.04,51.19C64.04,50.91 63.93,50.51 63.71,49.98C63.49,49.46 63.24,49.03 62.97,48.7C62.7,48.37 62.29,48.06 61.72,47.77C61.14,47.49 60.35,47.35 59.34,47.35C58.33,47.35 57.45,47.72 56.7,48.46C55.96,49.21 55.54,49.94 55.44,50.67L55.25,51.76L55.25,52.05C55.25,52.75 55.23,53.27 55.18,53.62C55.14,53.97 54.98,54.36 54.73,54.8C54.26,55.57 53.02,55.95 51.03,55.95C48.81,55.95 47.49,55.34 47.08,54.14C46.92,53.63 46.85,52.83 46.85,51.72C46.85,48.42 48.02,45.47 50.38,42.86C52.74,40.24 55.83,38.94 59.65,38.94C63.47,38.94 66.56,40.26 68.94,42.9C71.31,45.55 72.5,48.57 72.5,51.95C72.5,53.76 72.1,55.47 71.31,57.09C70.52,58.7 69.57,60 68.46,60.98C66.12,63.07 64.03,64.48 62.19,65.21L61,65.68L61,65.92L69.7,65.92C70.99,65.92 71.92,66.07 72.48,66.37C73.03,66.67 73.4,67.13 73.59,67.75C73.78,68.37 73.88,69.18 73.88,70.17C73.88,71.16 73.77,71.97 73.57,72.57Z" style="fill:rgb(148,192,255);fill-rule:nonzero;"/>
                </g>
                <g transform="matrix(0.928563,0,0,0.928563,230,218.525)">
                    <path d="M164,110.09L129.67,75.76C124.27,70.36 115.49,70.36 110.09,75.76L104.83,81.02L110.72,86.9C112.33,88.52 112.33,91.14 110.72,92.75C109.91,93.56 108.85,93.96 107.8,93.96C106.75,93.96 105.68,93.56 104.87,92.75L98.99,86.86L86.86,98.99L92.75,104.88C94.36,106.49 94.36,109.11 92.75,110.72C91.94,111.53 90.88,111.93 89.83,111.93C88.78,111.93 87.71,111.53 86.9,110.72L81.02,104.83L75.76,110.09C70.36,115.49 70.36,124.27 75.76,129.67L110.09,164C115.49,169.4 124.27,169.4 129.67,164L164,129.67C169.4,124.27 169.4,115.49 164,110.09ZM133.33,135.98C133.12,136.58 132.78,136.99 132.31,137.22C131.61,137.6 130.63,137.79 129.36,137.79L110.78,137.79C109.64,137.79 108.66,137.36 107.84,136.5C107.02,135.65 106.6,134.65 106.6,133.51C106.6,131.8 107.2,130.22 108.39,128.78C109.57,127.34 111.01,126.11 112.69,125.08C114.36,124.05 116.04,123.03 117.72,122.04C119.4,121.04 120.83,119.91 122.02,118.64C123.21,117.37 123.8,116.03 123.8,114.6C123.8,114.32 123.69,113.91 123.47,113.39C123.25,112.87 123,112.44 122.73,112.11C122.46,111.78 122.04,111.47 121.47,111.18C120.9,110.9 120.11,110.75 119.1,110.75C118.09,110.75 117.21,111.13 116.46,111.87C115.72,112.61 115.3,113.35 115.2,114.08L115.01,115.17L115.01,115.46C115.01,116.15 114.99,116.68 114.94,117.02C114.89,117.37 114.74,117.77 114.49,118.21C114.02,118.97 112.78,119.35 110.78,119.35C108.57,119.35 107.25,118.75 106.84,117.55C106.68,117.04 106.6,116.23 106.6,115.12C106.6,111.83 107.78,108.88 110.14,106.26C112.5,103.65 115.59,102.34 119.41,102.34C123.23,102.34 126.32,103.67 128.69,106.31C131.07,108.96 132.26,111.97 132.26,115.36C132.26,117.17 131.86,118.88 131.07,120.49C130.28,122.11 129.33,123.41 128.22,124.39C125.88,126.48 123.79,127.89 121.95,128.62L120.76,129.09L120.76,129.33L129.46,129.33C130.75,129.33 131.68,129.48 132.23,129.78C132.79,130.08 133.16,130.54 133.35,131.16C133.54,131.78 133.64,132.58 133.64,133.58C133.64,134.58 133.53,135.38 133.33,135.98Z" style="fill:rgb(140,232,244);fill-rule:nonzero;"/>
                </g>
            </g>
        </g>
    </g>
</svg>
